X: 183
T: Nai niudu ge
L: 1/8
M: 3/4
K: F
z2F G [I:setbarnb 1]| 
A4- | 
A4 | 
A A/ c/ d d/ c/ | 
A3F | 
G> A F D/ C/ | 
DD3- | 
D2D F | 
G4 | 
A3G | 
G> A F D/ C/ | 
DD3- | 
D4 | 
z2F G | 
A4- | 
A4 | 
A A/ c/ d d/ c/ | 
A3F | 
G> A F D/ C/ | 
DD3- | 
D2D F | 
G4 | 
A3G | 
G> A F D/ C/ | 
DD3- | 
D4 | 
z2F G | 
A4- | 
A4 | 
A A/ c/ d d/ c/ | 
A3F | 
G> A F D/ C/ | 
DD3- | 
D2D F | 
G4 | 
A3G | 
G> A F D/ C/ | 
DD3- | 
D2D F | 
G4 | 
A3G | 
G> A F D/ C/ | 
DD3- | 
D4 |]

@@@ Tune index: 8851
